astro/public/img/icons/what-is-ciam.svg

<?xml version="1.0" encoding="UTF-8"?>
<svg width="70px" height="70px" viewBox="0 0 70 70" version="1.1" xmlns="http://www.w3.org/2000/svg" xmlns:xlink="http://www.w3.org/1999/xlink">
    <title>ciam</title>
    <defs>
        <linearGradient x1="0%" y1="3.07617188%" x2="100%" y2="96.9238281%" id="linearGradient-1">
            <stop stop-color="#A4AEBE" offset="0%"></stop>
            <stop stop-color="#2D53F5" offset="100%"></stop>
        </linearGradient>
    </defs>
    <g id="ciam" stroke="none" stroke-width="1" fill="none" fill-rule="evenodd">
        <g id="molecular" transform="translate(3, 4)" fill="url(#linearGradient-1)" fill-rule="nonzero" stroke="url(#linearGradient-1)" stroke-width="0.5">
            <path d="M28.3398849,0 C31.6591666,0 34.3594774,2.68664349 34.3594774,5.98912511 C34.3594774,8.77748122 32.4344777,11.1268043 29.8373953,11.7907176 L29.8373953,22.8348804 C34.6563838,23.5562056 38.3632211,27.7031801 38.3632211,32.6960381 C38.3632211,37.6884987 34.6565834,41.8354732 29.8373953,42.5567984 L29.8373953,53.6253961 C31.4958382,54.2334866 32.6816667,55.8215543 32.6816667,57.6801935 C32.6816667,60.0620965 30.7339049,62 28.3398849,62 C25.945865,62 23.9981032,60.0620965 23.9981032,57.6801935 C23.9981032,55.821753 25.1839317,54.2336853 26.8423746,53.6253961 L26.8423746,42.5565998 C25.1949135,42.3098672 23.6780353,41.6624425 22.3943694,40.7182236 L13.9757653,49.0942181 C13.6832516,49.3852513 13.2998889,49.5306685 12.9167259,49.5306685 C12.533563,49.5306685 12.1502003,49.3850526 11.8576866,49.0942181 C11.2728589,48.5125491 11.2728589,47.5691248 11.8576866,46.9872571 L20.2762907,38.6112626 C19.0457365,36.9550554 18.3165487,34.9088835 18.3165487,32.6958394 C18.3165487,32.0744389 18.3768485,31.4673417 18.4866659,30.8771304 L11.0410443,25.1182493 C10.4005092,25.4891427 9.657145,25.7028982 8.86406349,25.7028982 C6.47004355,25.7028982 4.52228171,23.7649946 4.52228171,21.3830917 C4.52228171,19.0011887 6.47004355,17.0632852 8.86406349,17.0632852 C11.2580834,17.0632852 13.2058453,19.0011887 13.2058453,21.3830917 C13.2058453,21.8884763 13.1173923,22.3737964 12.9562602,22.8249475 L19.5433092,27.9197168 C21.0182571,25.2414169 23.692611,23.3062946 26.8423746,22.8346817 L26.8423746,11.7905189 C24.2454919,11.1266057 22.3204922,8.77748122 22.3204922,5.98912511 C22.3204922,2.68664349 25.0208029,0 28.3398849,0 Z M6.01959243,48.9138371 C9.33867445,48.9138371 12.0391849,51.6006793 12.0389852,54.9029622 C12.0389852,58.2054439 9.33867445,60.8920873 6.01959243,60.8920873 C2.70031073,60.8920873 0,58.2054439 0,54.9029622 C0,51.6006793 2.70031073,48.9138371 6.01959243,48.9138371 Z M28.6106348,56.367465 C28.5227809,56.3835563 28.4325309,56.3930918 28.3398849,56.3930918 C28.247239,56.3930918 28.156989,56.3835563 28.0691351,56.367465 C27.4557548,56.4924206 26.9931239,57.0335635 26.9931239,57.6801935 C26.9931239,58.4190006 27.5971198,59.0201381 28.3398849,59.0201381 C29.0824504,59.0201381 29.686646,58.4190006 29.686646,57.6801935 C29.686646,57.0335635 29.2240151,56.4924206 28.6106348,56.367465 Z M6.01959243,51.8938977 C4.35196486,51.8938977 2.99502078,53.2437751 2.99502078,54.9031609 C2.99502078,56.5625467 4.35176519,57.9124241 6.01959243,57.9124241 C7.68741966,57.9124241 9.04416408,56.562348 9.04396441,54.9031609 C9.04396441,53.2437751 7.68722,51.8938977 6.01959243,51.8938977 Z M28.3398849,25.7028982 C25.1821347,25.7028982 22.5047858,27.7858216 21.6212547,30.6429132 C21.6136673,30.6741024 21.6044825,30.7046957 21.5946988,30.7354876 C21.4118029,31.3578814 21.3117692,32.0152389 21.3117692,32.6956408 C21.3117692,36.5513834 24.4645277,39.6883833 28.3398849,39.6883833 C32.2152422,39.6883833 35.3682004,36.5515821 35.3682004,32.6956408 C35.3682004,28.8398981 32.2152422,25.7028982 28.3398849,25.7028982 Z M8.86406349,20.0433458 C8.12129834,20.0433458 7.51730248,20.6444833 7.51730248,21.3832903 C7.51730248,22.1220974 8.12129834,22.7232349 8.86406349,22.7232349 C9.60662898,22.7232349 10.2108245,22.1220974 10.2108245,21.3832903 C10.2108245,20.6444833 9.60682865,20.0433458 8.86406349,20.0433458 Z M28.3396853,2.9798619 C26.6720577,2.9798619 25.3153133,4.32973934 25.3153133,5.98912511 C25.3153133,7.64851087 26.6720577,8.99838831 28.3396853,8.99838831 C30.0073128,8.99838831 31.3642569,7.64851087 31.3642569,5.98912511 C31.3642569,4.32973934 30.0073128,2.9798619 28.3396853,2.9798619 Z M57.9804076,18.2238421 C54.6611259,18.2238421 51.9608151,20.9104856 51.9608151,24.2129672 C51.9608151,24.3669267 51.9686022,24.5188997 51.9801829,24.6698794 L41.1505871,28.3436518 C40.3676887,28.6090581 39.9493841,29.4559349 40.2163403,30.2346721 C40.4285875,30.8542848 41.0104202,31.2442493 41.6335842,31.2442493 C41.7939176,31.2442493 41.9568467,31.2184239 42.1169805,31.1641904 L52.946177,27.4906166 C54.0227871,29.1219917 55.876705,30.202291 57.9806072,30.202291 C61.2996893,30.202291 64,27.5156475 64,24.2131659 C64,20.9106842 61.2994896,18.2238421 57.9804076,18.2238421 Z M57.9804076,27.2224291 C56.3125803,27.2224291 54.9558359,25.8725516 54.9558359,24.2131659 C54.9558359,22.5537801 56.31278,21.2039027 57.9804076,21.2039027 C59.6480351,21.2039027 61.0047796,22.5537801 61.0047796,24.2131659 C61.0047796,25.872353 59.6480351,27.2224291 57.9804076,27.2224291 Z" id="Combined-Shape"></path>
        </g>
    </g>
</svg>

<svg xmlns="http://www.w3.org/2000/svg" width="70" height="70"><defs><linearGradient id="a" x1="0%" x2="100%" y1="3.076%" y2="96.924%"><stop offset="0%" stop-color="#A4AEBE"/><stop offset="100%" stop-color="#2D53F5"/></linearGradient></defs><path fill="url(#a)" stroke="url(#a)" stroke-width=".5" d="M28.34 0c3.32 0 6.02 2.687 6.02 5.99 0 2.787-1.926 5.137-4.523 5.8v11.045c4.82.721 8.526 4.868 8.526 9.861 0 4.992-3.706 9.14-8.526 9.86v11.07a4.328 4.328 0 0 1 2.845 4.054c0 2.382-1.948 4.32-4.342 4.32-2.394 0-4.342-1.938-4.342-4.32a4.328 4.328 0 0 1 2.844-4.055V42.557a10 10 0 0 1-4.448-1.839l-8.418 8.376a1.497 1.497 0 0 1-1.06.437c-.382 0-.766-.146-1.058-.437a1.484 1.484 0 0 1 0-2.107l8.418-8.376a9.886 9.886 0 0 1-1.79-7.734l-7.445-5.759a4.33 4.33 0 0 1-2.177.585c-2.394 0-4.342-1.938-4.342-4.32 0-2.382 1.948-4.32 4.342-4.32 2.394 0 4.342 1.938 4.342 4.32 0 .505-.089.99-.25 1.442l6.587 5.095a10.048 10.048 0 0 1 7.3-5.085V11.79c-2.598-.664-4.523-3.014-4.523-5.802C22.32 2.687 25.02 0 28.34 0ZM6.02 48.914c3.319 0 6.02 2.687 6.019 5.989 0 3.302-2.7 5.99-6.02 5.99C2.7 60.892 0 58.204 0 54.902s2.7-5.99 6.02-5.99Zm22.59 7.453a1.5 1.5 0 0 1-.54 0 1.344 1.344 0 0 0-1.077 1.313c0 .739.604 1.34 1.347 1.34.742 0 1.347-.601 1.347-1.34 0-.646-.463-1.188-1.076-1.313ZM6.02 51.894a3.02 3.02 0 0 0-3.025 3.01 3.02 3.02 0 0 0 3.025 3.008 3.02 3.02 0 0 0 3.024-3.009 3.02 3.02 0 0 0-3.024-3.01Zm22.32-26.191a7.036 7.036 0 0 0-6.745 5.032 6.94 6.94 0 0 0-.283 1.96c0 3.856 3.153 6.993 7.028 6.993 3.875 0 7.028-3.136 7.028-6.992s-3.153-6.993-7.028-6.993Zm-19.476-5.66c-.743 0-1.347.601-1.347 1.34 0 .74.604 1.34 1.347 1.34s1.347-.6 1.347-1.34c0-.739-.604-1.34-1.347-1.34ZM28.34 2.98a3.02 3.02 0 0 0-3.025 3.01 3.02 3.02 0 0 0 3.025 3.008 3.02 3.02 0 0 0 3.024-3.009 3.02 3.02 0 0 0-3.024-3.01Zm29.64 15.244c-3.319 0-6.02 2.686-6.02 5.989 0 .154.009.306.02.457l-10.83 3.674a1.488 1.488 0 0 0 .484 2.9c.16 0 .323-.026.483-.08l10.83-3.673a6.026 6.026 0 0 0 5.034 2.711c3.319 0 6.019-2.686 6.019-5.989 0-3.302-2.7-5.99-6.02-5.99Zm0 8.998a3.02 3.02 0 0 1-3.024-3.009 3.02 3.02 0 0 1 3.024-3.01 3.02 3.02 0 0 1 3.025 3.01 3.02 3.02 0 0 1-3.025 3.01Z" transform="translate(3 4)"/></svg>
